Sources/FrostedUI/Resources/Icons.xcassets/plusRectangle16.imageset/plus-rectangle-16.svg

<svg width="16" height="16" viewBox="0 0 16 16" fill="none" xmlns="http://www.w3.org/2000/svg" data-fui-icon="true">
  <path
    d="M8.75 7.25L12 7.25C12.4142 7.25 12.75 7.58579 12.75 8C12.75 8.41421 12.4142 8.75 12 8.75H8.75V12C8.75 12.4142 8.41421 12.75 8 12.75C7.58579 12.75 7.25 12.4142 7.25 12V8.75H4C3.58579 8.75 3.25 8.41421 3.25 8C3.25 7.58579 3.58579 7.25 4 7.25L7.25 7.25V4C7.25 3.58579 7.58579 3.25 8 3.25C8.41421 3.25 8.75 3.58579 8.75 4V7.25Z"
    fill="currentColor"
  />
  <path
    fill-rule="evenodd"
    clip-rule="evenodd"
    d="M0 4.25C0 1.90279 1.90279 0 4.25 0H11.75C14.0972 0 16 1.90279 16 4.25V11.75C16 14.0972 14.0972 16 11.75 16H4.25C1.90279 16 0 14.0972 0 11.75V4.25ZM4.25 1.5C2.73122 1.5 1.5 2.73122 1.5 4.25V11.75C1.5 13.2688 2.73122 14.5 4.25 14.5H11.75C13.2688 14.5 14.5 13.2688 14.5 11.75V4.25C14.5 2.73122 13.2688 1.5 11.75 1.5H4.25Z"
    fill="currentColor"
  />
</svg>

<svg xmlns="http://www.w3.org/2000/svg" width="16" height="16" fill="none" data-fui-icon="true" viewBox="0 0 16 16"><path fill="currentColor" d="M8.75 7.25H12a.75.75 0 0 1 0 1.5H8.75V12a.75.75 0 0 1-1.5 0V8.75H4a.75.75 0 0 1 0-1.5h3.25V4a.75.75 0 0 1 1.5 0z"/><path fill="currentColor" fill-rule="evenodd" d="M0 4.25A4.25 4.25 0 0 1 4.25 0h7.5A4.25 4.25 0 0 1 16 4.25v7.5A4.25 4.25 0 0 1 11.75 16h-7.5A4.25 4.25 0 0 1 0 11.75zM4.25 1.5A2.75 2.75 0 0 0 1.5 4.25v7.5a2.75 2.75 0 0 0 2.75 2.75h7.5a2.75 2.75 0 0 0 2.75-2.75v-7.5a2.75 2.75 0 0 0-2.75-2.75z" clip-rule="evenodd"/></svg>
